!!!COM:	Martini, Johannes
!!!CDT:	~1440///-~1497//
!!!OPR:	Missa Cucu
!!!ONM:	1
!!!OTL:	Kyrie
!!!AGN:	Mass; Kyrie
!!!SCT:	Mar1003a
!!!SCA:	Mar1003a
!!!voices:	4
!!!voices-OPR:	4
**kern	**kern	**kern	**kern
*staff4	*staff3	*staff2	*staff1
*Ivox	*Ivox	*Ivox	*Ivox
*I"Bassus	*I"Tenor	*I"Altus	*I"Superius
*I'B	*I'T	*I'A	*I'S
*>[A,B,C]	*>[A,B,C]	*>[A,B,C]	*>[A,B,C]
*>A	*>A	*>A	*>A
*clefF4	*clefGv2	*clefGv2	*clefG2
*k[]	*k[]	*k[]	*k[]
*M3/1	*M3/1	*M3/1	*M3/1
*met(O)	*met(O)	*met(O)	*met(O)
!!section: Kyrie I
!!!OMD: Kyrie I
=1-	=1-	=1-	=1-
0D	0.r	0d	0a
1E	.	2B\	1g
.	.	2c\	.
=2	=2	=2	=2
1.D	0.r	1d	1.f
.	.	2D/	.
2C/	.	2E/	2e/
1BB-	.	2F/	1d
.	.	2G/	.
=3	=3	=3	=3
1AA	0.r	2A/	2c/
.	.	1c	2.e/
2C/	.	.	.
.	.	.	4d/
2D\	.	4B\	2c/
.	.	4A/	.
1E	.	1G#	1B
=4	=4	=4	=4
2r	0.r	1A	1A
1AA	.	.	.
.	.	1c	2r
2AA/	.	.	2e/
2D\	.	2d\	2f/
2C/	.	2e\	2g/
=5	=5	=5	=5
2F\	0.r	2A/	2a/
1G	.	1d	2.b\
.	.	.	4a/
2A\	.	2c\	2.a/
1E	.	1B	.
.	.	.	8g#i/L
.	.	.	8f#i/J
.	.	.	2g#i/
=6	=6	=6	=6
0AA	0.c	1.A	0a
.	.	4G/	.
.	.	4F/	.
1C	.	1E	1r
=7	=7	=7	=7
0.D	0.A	1D	1.f
.	.	0F	.
.	.	.	2e/
.	.	.	2d/
.	.	.	4c/
.	.	.	4d/
=8	=8	=8	=8
0AA	0c	1E	1e
.	.	1A	2r
.	.	.	2e/
1D	1A	1F	2d/
.	.	.	2f/
=9	=9	=9	=9
1C	0c	1G	2e/
.	.	.	2.g/
2r	.	1.E	.
.	.	.	4f/
1C	.	.	4e/
.	.	.	4d/
.	1A	.	2c/
2D\	.	2F/	2f/
=10	=10	=10	=10
2C/	0.r	2G/	2e/
1F	.	2D/	4a/
.	.	.	4g/
.	.	2A/	4f/
.	.	.	4e/
2C/	.	2G/	2.e/
1D	.	1F	.
.	.	.	4d/
.	.	.	4d/
.	.	.	4c/
=11	=11	=11	=11
1C	0.c	1G	1e
0AA	.	1A	1r
.	.	1A	1e
=12	=12	=12	=12
0D	1A	1r	2f/
.	.	.	2g/
.	1r	1.A	1a
1F	1r	.	2a/
.	.	4G/	[2cc\
.	.	4F/	.
=13	=13	=13	=13
1C	1c	1E	4cc\]
.	.	.	8b/L
.	.	.	8a/J
.	.	.	2g/
1D	1A	1F	2f/
.	.	.	4g/
.	.	.	4a/
1GG	1d	1G	1b-
=14	=14	=14	=14
1AA	1c	1E	1.a
0E	0B	1r	.
.	.	.	2g#i/
.	.	[1e	2g#i/
.	.	.	2f#i/
=15	=15	=15	=15
2.AA/	0.A	1e]	2.a/
4BB/	.	.	4g/
2C/	.	2e\	2e/
1.D	.	2f\	2d/
.	.	1d	1f
=16	=16	=16	=16
2C/	1c	2e\	2e/
2AA/	.	4r	2c/
.	.	2A/	.
2D\	1A	.	2d/
.	.	4B\	.
2C/	.	2c\	2e/
2D\	1r	2A/	2f/
2GG/	.	4G/	4e/
.	.	4B\	[4d/
=17	=17	=17	=17
2r	0.r	2A/	4d/]
.	.	.	4c/
2GG/	.	2G/	4B/
.	.	.	8A/L
.	.	.	8B/J
2AA/	.	4F/	4c/
.	.	4E/	4A/
2C/	.	1E	2.A/
1BB	.	.	.
.	.	.	4G#i/
.	.	2D/	2G#i/
=18	=18	=18	=18
0AA	1r	1E	1A
.	0c	1A	2r
.	.	.	2.e/
1C	.	1G	.
.	.	.	4f/
.	.	.	2g/
=19	=19	=19	=19
2D\	0A	1r	2f/
2.F\	.	.	2.a/
.	.	1c	.
4E\	.	.	4g/
2F\	.	.	4f/
.	.	.	4e/
1D	1r	1d	1f
=20	=20	=20	=20
2r	1c	2e\	2g/
2AA/	.	2.A/	4f/
.	.	.	2e/
2C/	1A	.	.
.	.	4G/	4d/
2D\	.	2F/	2.d/
1AA	1A	1E	.
.	.	.	4c#i/
.	.	.	4c#i/
.	.	.	4B/
=21	=21	=21	=21
0D	1r	2D/	1d
.	.	2.F/	.
.	1A	.	1f
.	.	4E/	.
.	.	2F/	.
1C	1c	2G/	1e
.	.	[2c\	.
=22	=22	=22	=22
1F	1A	4c\]	1a
.	.	4B\	.
.	.	4c\	.
.	.	4d\	.
0E	1B	0e	2g#/
.	.	.	1g#i
.	1B	.	.
.	.	.	4f#i/
.	.	.	4g#i/
=23	=23	=23	=23
0.AAl	0.Al	0.el	0.al
!!LO:LB:i:g=z
=24||	=24||	=24||	=24||
*>B	*>B	*>B	*>B
*clefF4	*clefGv2	*clefGv2	*clefG2
*k[]	*k[]	*k[]	*k[]
*M2/1	*M2/1	*M2/1	*M2/1
*met(C|)	*met(C|)	*met(C|)	*met(C|)
!!section: Christe
!!!OMD: Christe
0r	0r	0A	[0a
=25	=25	=25	=25
0r	0r	0c	0a]
=26	=26	=26	=26
0r	0r	1B	1g
.	.	1A	[1a
=27	=27	=27	=27
0AA	0r	1.c	2a/]
.	.	.	4g/
.	.	.	4f/
.	.	.	[1e
.	.	4B\	.
.	.	4A/	.
=28	=28	=28	=28
0C	0r	1G	1e]
.	.	1A	1c
=29	=29	=29	=29
1BB	0r	1r	1d
1AA	.	1A	1c
=30	=30	=30	=30
1.C	0r	1G	1.e
.	.	1c	.
4BB/	.	.	4d/
4AA/	.	.	4c/
=31	=31	=31	=31
1GG	0r	2.d\	1B
.	.	4e\	.
[1AA	.	2f\	1A
.	.	[2e\	.
=32	=32	=32	=32
1AA]	0r	2e\]	1a
.	.	2c\	.
1GG	.	1d	1b
=33	=33	=33	=33
1C	0r	1e	1g
2.D\	.	[1A	2f/
.	.	.	[2a/
4E\	.	.	.
=34	=34	=34	=34
2F\	0r	2A/]	2a/]
1E	.	2G/	2b\
.	.	1c	2cc\
2C/	.	.	2a/
=35	=35	=35	=35
1D	0r	0B	4b\
.	.	.	4a/
.	.	.	4g#i/
.	.	.	4f#i/
1E	.	.	1g#i
=36	=36	=36	=36
0AA	[0c	[0A	[0a
=37	=37	=37	=37
1r	0c_	0A]	0a]
1F	.	.	.
=38	=38	=38	=38
1E	0c]	1r	0g
1C	.	1e	.
=39	=39	=39	=39
1D	0A	1d	1f
[1F	.	1c	[1a
=40	=40	=40	=40
2F\]	[0c	0A	2a/]
2G\	.	.	2b\
2.F\	.	.	2a/
.	.	.	4g/
4D\	.	.	4f/
=41	=41	=41	=41
0C	0c]	0G	2.e/
.	.	.	4d/
.	.	.	1e
=42	=42	=42	=42
[0D	[0A	0F	0d
=43	=43	=43	=43
0D]	0A_	1D	1r
.	.	1F	1d
=44	=44	=44	=44
0AA	0A]	1E	1e
.	.	1A	[1c
=45	=45	=45	=45
1C	0r	1G	2c/]
.	.	.	4B/
.	.	.	4c/
[1D	.	[1F	1A
=46	=46	=46	=46
2D\]	0r	2F/]	2B/
2AA/	.	2E/	1c
1C	.	[1E	.
.	.	.	[2A/
=47	=47	=47	=47
0BB	0r	2E/]	2A/]
.	.	2D/	4G#i/
.	.	.	4F#i/
.	.	2D/	1G#i
.	.	2C/	.
=48	=48	=48	=48
[0AA	0r	[0E	0A
=49	=49	=49	=49
0AA]	[0c	0E]	1r
.	.	.	[1a
=50	=50	=50	=50
0E	0c]	0e	2a/]
.	.	.	4g/
.	.	.	4f/
.	.	.	1g
=51	=51	=51	=51
1.D	[0A	0d	1.f
4C/	.	.	4e/
4BB/	.	.	4d/
=52	=52	=52	=52
1C	0A]	1A	1e
1D	.	1F	[1d
=53	=53	=53	=53
0E	0r	0G	2d/]
.	.	.	4c#i/
.	.	.	4B/
.	.	.	1c#i
=54	=54	=54	=54
0D	0r	0A	1d
.	.	.	[1f
=55	=55	=55	=55
1E	0c	1G	2f/]
.	.	.	2e/
1C	.	1E	[1e
=56	=56	=56	=56
0D	[0A	0F	2e/]
.	.	.	2d/
.	.	.	2.d/
.	.	.	4c/
=57	=57	=57	=57
0AA	0A]	0E	1.e
.	.	.	2c/
=58	=58	=58	=58
1r	1c	1.A	1e
1D	1d	.	1f
.	.	2B\	.
=59	=59	=59	=59
1C	1e	2c\	1g
.	.	2d\	.
1AA	1c	1e	1a
=60	=60	=60	=60
0E	0B	2r	2b\
.	.	1e	1g
.	.	[2c\	4f/
.	.	.	4g/
=61	=61	=61	=61
1AA	0A	2c\]	0a
.	.	2c\	.
[1D	.	[1A	.
=62	=62	=62	=62
2D\]	0d	2A/]	0r
2C/	.	2F/	.
1BB	.	1G	.
=63	=63	=63	=63
1AA	1c	1A	0r
1D	1A	2F/	.
.	.	[2A/	.
=64	=64	=64	=64
2AA/	1c	2A/]	0r
2C/	.	1G	.
2GG/	2B\	.	.
2D\	[2A/	2F/	.
=65	=65	=65	=65
2BB/	2A/]	2E/	0r
2C/	2G/	1e	.
1D	1F	.	.
.	.	2d\	.
=66	=66	=66	=66
1AA	1E	1c	0r
2AA/	1A	[1e	.
[2C/	.	.	.
=67	=67	=67	=67
2C/]	1r	2e\]	0r
4BB/	.	4d\	.
4AA/	.	4c\	.
1GG	1d	1B	.
=68	=68	=68	=68
1.AA	2c\	1A	0r
.	1e	.	.
.	.	2r	.
2BB/	2d\	2D/	.
=69	=69	=69	=69
2C/	2c\	2E/	0r
2D\	4B\	2F/	.
.	4A/	.	.
1BB	2.G#i/	2.D/	.
.	4F#i/	4C/	.
=70	=70	=70	=70
1AA	0A	2E/	1a
.	.	2F/	.
1C	.	1E	1g
=71	=71	=71	=71
1D	0r	0A	1.f
1F	.	.	.
.	.	.	4e/
.	.	.	4d/
=72	=72	=72	=72
1C	0c	0G	2e/
.	.	.	2f/
2E\	.	.	2g/
4D\	.	.	4f/
4E\	.	.	4g/
=73	=73	=73	=73
2F\	[0A	0c	2a/
2G\	.	.	4g/
.	.	.	4f/
1A	.	.	1e
=74	=74	=74	=74
0D	0A]	0d	1d
.	.	.	1f
=75	=75	=75	=75
1C	0c	0e	1g
[1AA	.	.	[1a
=76	=76	=76	=76
1AA]	[0Al	0c	2a/]
.	.	.	2g/
1AA	.	.	1e
=77	=77	=77	=77
0D	0A_	0d	0f
=78	=78	=78	=78
0AAl	0A]	0cl	0e 0al
!!LO:LB:i:g=z
=79||	=79||	=79||	=79||
*>C	*>C	*>C	*>C
*clefF4	*clefGv2	*clefGv2	*clefG2
*k[]	*k[]	*k[]	*k[]
*M3/1	*M3/1	*M3/1	*M3/1
*met(O)	*met(O)	*met(O)	*met(O)
!!section: Kyrie II
!!!OMD: Kyrie II
0D	0.r	1.A	0.r
.	.	2B\	.
2E\	.	2c\	.
2D\	.	[2d\	.
=80	=80	=80	=80
2F\	0.r	2d\]	0.r
2G\	.	2.e\	.
1A	.	.	.
.	.	4d\	.
.	.	4c\	.
.	.	4B\	.
1AA	.	2c\	.
.	.	2A/	.
=81	=81	=81	=81
2BB/	0.r	4d\	0.r
.	.	4e\	.
2AA/	.	4f\	.
.	.	2e\	.
2C/	.	.	.
.	.	4d\	.
2D\	.	2.d\	.
1E	.	.	.
.	.	4c#i\	.
.	.	4c#i\	.
.	.	4B\	.
=82	=82	=82	=82
2D\	0.r	1d	0.r
4C/	.	.	.
4BB/	.	.	.
1AA	.	2c\	.
.	.	1e	.
2C/	.	.	.
2D\	.	2A/	.
=83	=83	=83	=83
1E	0.r	2G/	0.r
.	.	1c	.
2F\	.	.	.
2G\	.	2B\	.
2E\	.	2G/	.
2C/	.	[2A/	.
=84	=84	=84	=84
2.D\	0.r	4A/]	0.r
.	.	4G/	.
.	.	4F/	.
4C/	.	4E/	.
2BB/	.	2D/	.
2AA/	.	2F/	.
4AA/	.	2E/	.
2C/	.	.	.
.	.	2A/	.
4C/	.	.	.
=85	=85	=85	=85
2D\	0.r	2B\	0.r
2E\	.	2.c\	.
1AA	.	.	.
.	.	4B\	.
.	.	2.A/	.
1BB	.	.	.
.	.	8G#i/L	.
.	.	8F#i/J	.
.	.	2G#/	.
=86	=86	=86	=86
0AA	0c	1A	1.a
.	.	1c	.
.	.	.	2g/
1D	1A	1d	1f
=87	=87	=87	=87
2C/	1r	2e\	2e/
2.F\	.	2c\	1a
.	1c	2f\	.
4E\	.	.	.
2C/	.	2e\	2g/
2D\	1A	2d\	2f/
2E\	.	4c\	4e/
.	.	4B\	4d/
=88	=88	=88	=88
1F	1r	2.A/	1c
.	.	4F/	.
1D	1d	2A/	2r
.	.	2B\	2f/
1C	1e	2.c\	2g/
.	.	.	2e/
.	.	4A/	.
=89	=89	=89	=89
1F	1A	2c\	2a/
.	.	2d\	1a
0E	0B	0e	.
.	.	.	4g#i/
.	.	.	4f#i/
.	.	.	1g#i
=90	=90	=90	=90
0AA	0A	2e\	1a
.	.	1c	.
.	.	.	1cc
.	.	4B\	.
.	.	4A/	.
1E	1r	1G#i	1b
=91	=91	=91	=91
2AA/	1c	1A	2.a/
2C/	.	.	.
.	.	.	4g/
2D\	1A	1r	2f/
2C/	.	.	2.e/
2AA/	1c	1A	.
.	.	.	4c/
2C/	.	.	2e/
=92	=92	=92	=92
2D\	1A	2F/	2d/
2.AA/	.	1A	4e/
.	.	.	2f/
.	1c	.	.
4BB/	.	.	4e/
2C/	.	2G/	2.e/
1D	1A	1F	.
.	.	.	8d/L
.	.	.	8c/J
.	.	.	2d/
=93	=93	=93	=93
0.AA	1c	1E	2.e/
.	.	.	4d/
.	2A/	2F/	4c/
.	.	.	4B/
.	1c	2E/	2A/
.	.	2.A/	2r
.	2A/	.	[2e/
.	.	4G/	.
=94	=94	=94	=94
1r	2c\	4E/	2e/]
.	.	4F/	.
.	2B\	2G/	2d/
1AA	2A/	2A/	1c
.	2.A/	2E/	.
1E	.	2r	1B
.	8G#i/L	.	.
.	8F#/J	.	.
.	2G#/	[2e\	.
=95	=95	=95	=95
1.AA	2.A/	4e\]	2c/
.	.	4d\	.
.	.	4c\	4A/
.	8G/L	4B\	4B/
.	8F/J	.	.
.	2E/	2A/	2c/
2BB/	2D/	2G/	1d
1AA	1E	1A	.
.	.	.	2c/
=96	=96	=96	=96
1BB-	1D	1F	2.d/
.	.	.	4c/
1GG	1d	1G	4B/
.	.	.	4A/
.	.	.	2B/
[1AA	1c	1E	1A
=97	=97	=97	=97
1AA]	1A	4F/	2r
.	.	4G/	.
.	.	2.A/	2c/
1D	1r	.	2d/
.	.	4G/	.
.	.	2F/	1f
1C	1c	1G	.
.	.	.	2e/
=98	=98	=98	=98
2D\	1A	1F	1f
2F\	.	.	.
2E\	2B\	2r	2g/
2F\	2A/	2c\	1a
1D	1d	2d\	.
.	.	2f\	2b-i\
=99	=99	=99	=99
1AA	2c\	1e	2a/
.	2A/	.	2.cc\
2r	1c	1A	.
.	.	.	4b\
2C/	.	.	2.a/
2D\	1B	2r	.
.	.	.	4g#i/
2E\	.	2e\	4g#i/
.	.	.	4f#i/
=100	=100	=100	=100
2AA/	0.A	2c\	2a/
1D	.	2f\	2f/
.	.	4r	4d/
.	.	4D/	4f/
2C/	.	2.E/	4e/
.	.	.	2c/
2AA/	.	.	.
.	.	2.F/	2A/
2D\	.	.	.
.	.	.	[4d/
=101	=101	=101	=101
2GG/	0.r	2G/	4d/]
.	.	.	4B/
2AA/	.	1E	4c/
.	.	.	2e/
2C/	.	.	.
.	.	.	2A/
2D\	.	2F/	.
.	.	.	4A/
1BB	.	2D/	4B/
.	.	.	2G/
.	.	2d\	.
.	.	.	8F/L
.	.	.	8G/J
=102	=102	=102	=102
0AA	0c	2c\	1A
.	.	2.A/	.
.	.	.	1a
.	.	4B\	.
.	.	4A/	.
.	.	8G/L	.
.	.	8F/J	.
1C	1c	1E	1g
=103	=103	=103	=103
2D\	2A/	2F/	2f/
2C/	1c	2G/	1e
1AA	.	1A	.
.	4B\	.	4d/
.	4A/	.	4c/
1BB	2.G#i/	1D	1d
.	4F#i/	.	.
=104	=104	=104	=104
0AA	0A	2E/	1c
.	.	2F/	.
.	.	2E/	1cc
.	.	2.A/	.
1E	1r	.	1b
.	.	8G#i/L	.
.	.	8F#i/J	.
.	.	2G#/	.
=105	=105	=105	=105
2F\	0c	4A/	2a/
.	.	4B\	.
2E\	.	4c\	1g
.	.	4d\	.
1C	.	1e	.
.	.	.	4f/
.	.	.	4e/
1D	1A	1d	1f
=106	=106	=106	=106
1AA	1c	2c\	2.e/
.	.	1e	.
.	.	.	4f/
2E\	2B\	.	2g/
2F\	2A/	2d\	2.a/
1E	1B	1e	.
.	.	.	4g#i/
.	.	.	4g#i/
.	.	.	4f#i/
=107	=107	=107	=107
0.AAl	0.Al	0.el	0.al
==	==	==	==
*-	*-	*-	*-
!!!RDF**kern: l=long note in original notation
!!!RDF**kern: i=editorial accidental
!!!ENC:	Chris Gage 11-20-2013
!!!END:	2014/06/14/
!!!EED:	Jesse Rodin
!!!EEV:	2015/03/09/
!!!ONB:	Translated from MusicXML and edited on 2015/03/09/ by Craig Sapp
!!muse2ps: T^@{OPR}^u^@{ONM}{. }@{OTL}^C^@{COM}^i2I150v85,85,85,150Q16
